packages/core/src/svgs/tokens/mono/DJED.svg

<svg width="24" height="24" viewBox="0 0 24 24" fill="none" xmlns="http://www.w3.org/2000/svg">
<path fill-rule="evenodd" clip-rule="evenodd" d="M12 21.4117C14.4961 21.4117 16.89 20.4202 18.6551 18.6551C20.4202 16.89 21.4117 14.4961 21.4117 12C21.4117 9.50377 20.4202 7.10991 18.6551 5.34487C16.89 3.57982 14.4961 2.58823 12 2.58823C9.50377 2.58823 7.10991 3.57982 5.34487 5.34487C3.57982 7.10991 2.58823 9.50377 2.58823 12C2.58823 14.4961 3.57982 16.89 5.34487 18.6551C7.10991 20.4202 9.50377 21.4117 12 21.4117ZM12 22C14.6522 22 17.1957 20.9464 19.071 19.071C20.9464 17.1957 22 14.6522 22 12C22 9.34785 20.9464 6.80429 19.071 4.92892C17.1957 3.05357 14.6522 2 12 2C9.34785 2 6.80429 3.05357 4.92892 4.92892C3.05357 6.80429 2 9.34785 2 12C2 14.6522 3.05357 17.1957 4.92892 19.071C6.80429 20.9464 9.34785 22 12 22Z" fill="white"/>
<path fill-rule="evenodd" clip-rule="evenodd" d="M12.0004 21.4121C14.4965 21.4121 16.8904 20.4206 18.6555 18.6555C20.4206 16.8904 21.4121 14.4965 21.4121 12.0004C21.4121 9.50417 20.4206 7.1103 18.6555 5.34526C16.8904 3.58021 14.4965 2.58862 12.0004 2.58862C9.50417 2.58862 7.1103 3.58021 5.34526 5.34526C3.58021 7.1103 2.58862 9.50417 2.58862 12.0004C2.58862 14.4965 3.58021 16.8904 5.34526 18.6555C7.1103 20.4206 9.50417 21.4121 12.0004 21.4121ZM8.87097 6.11803C8.81766 6.11879 8.76503 6.13006 8.71609 6.15117C8.66713 6.17228 8.62282 6.20282 8.58567 6.24106C8.54853 6.27929 8.51928 6.32447 8.4996 6.37401C8.47991 6.42355 8.47018 6.47649 8.47097 6.5298C8.47097 6.75332 8.64743 6.94156 8.87097 6.94156H9.11803L9.46505 7.88273H14.5709L14.9003 6.94156H15.1239C15.1775 6.94289 15.2307 6.93314 15.2804 6.91289C15.3299 6.89265 15.3748 6.86235 15.4122 6.82391C15.4502 6.78508 15.4802 6.7391 15.5004 6.68862C15.5206 6.63813 15.5306 6.58415 15.5298 6.5298C15.5301 6.42023 15.4879 6.3148 15.4122 6.23567C15.3739 6.19679 15.328 6.16625 15.2774 6.14601C15.2267 6.12575 15.1725 6.11622 15.118 6.11803H8.87097ZM8.87097 8.47097C8.81766 8.47173 8.76503 8.48299 8.71609 8.5041C8.66713 8.52521 8.62282 8.55576 8.58567 8.594C8.54853 8.63223 8.51928 8.67741 8.4996 8.72696C8.47991 8.7765 8.47018 8.82943 8.47097 8.88273C8.47097 9.10626 8.64743 9.29444 8.87097 9.29444H9.11803L9.46505 10.2357H14.5709L14.9003 9.29444H15.1239C15.1759 9.29348 15.2271 9.28195 15.2746 9.26081C15.3221 9.23958 15.3649 9.20903 15.4004 9.17096C15.4384 9.13214 15.4684 9.08616 15.4886 9.03567C15.5088 8.98519 15.5188 8.93121 15.518 8.87686C15.5169 8.76932 15.4747 8.66628 15.4004 8.58862C15.3273 8.51443 15.228 8.47213 15.1239 8.47097H8.86508H8.87097ZM8.87097 10.8239C8.81766 10.8247 8.76503 10.8359 8.71609 10.8571C8.66713 10.8781 8.62282 10.9087 8.58567 10.947C8.54853 10.9851 8.51928 11.0303 8.4996 11.0799C8.47991 11.1294 8.47018 11.1824 8.47097 11.2356C8.47097 11.4592 8.64743 11.6474 8.87097 11.6474H9.11803L9.64746 12.5886H14.3534L14.9003 11.6474H15.1239C15.1775 11.6488 15.2307 11.639 15.2804 11.6187C15.3299 11.5985 15.3748 11.5682 15.4122 11.5298C15.4502 11.4909 15.4802 11.4449 15.5004 11.3944C15.5206 11.3441 15.5306 11.29 15.5298 11.2356C15.5301 11.1261 15.4879 11.0207 15.4122 10.9415C15.3739 10.9027 15.328 10.8722 15.2774 10.8519C15.2267 10.8317 15.1725 10.8221 15.118 10.8239H8.87097ZM14.3534 12.8827H9.64746V13.7651H14.3534V12.8827ZM8.87097 18.2356C8.81766 18.2365 8.76503 18.2477 8.71609 18.2688C8.66713 18.2898 8.62282 18.3205 8.58567 18.3587C8.54853 18.3969 8.51928 18.4421 8.4996 18.4916C8.47991 18.5412 8.47018 18.5941 8.47097 18.6474C8.47097 18.8769 8.64743 19.0592 8.86508 19.0592H15.1239C15.1775 19.0605 15.2307 19.0508 15.2804 19.0305C15.3299 19.0103 15.3748 18.98 15.4122 18.9415C15.4502 18.9027 15.4802 18.8567 15.5004 18.8062C15.5206 18.7558 15.5306 18.7017 15.5298 18.6474C15.5301 18.5379 15.4879 18.4325 15.4122 18.3533C15.3739 18.3144 15.328 18.2839 15.2774 18.2636C15.2267 18.2435 15.1725 18.2338 15.118 18.2356H14.9298C14.6828 17.9827 14.3534 17.1768 14.3534 15.518V14.3534H12.5886V18.471H11.4121V14.3534H9.64746V15.518C9.64746 17.1768 9.32395 17.9827 9.07685 18.2415H8.86508L8.87097 18.2356Z" fill="white"/>
</svg>

<svg xmlns="http://www.w3.org/2000/svg" width="24" height="24" fill="none" viewBox="0 0 24 24">
    <path fill="#fff" fill-rule="evenodd" d="M12 21.412a9.412 9.412 0 1 0 0-18.824 9.412 9.412 0 0 0 0 18.824M12 22a10 10 0 1 0 0-20 10 10 0 0 0 0 20" clip-rule="evenodd"/>
    <path fill="#fff" fill-rule="evenodd" d="M12 21.412A9.412 9.412 0 1 0 12 2.59a9.412 9.412 0 0 0 0 18.823M8.871 6.118a.406.406 0 0 0-.4.412c0 .223.176.412.4.412h.247l.347.94h5.106l.33-.94h.223a.4.4 0 0 0 .288-.118.4.4 0 0 0 .118-.294.42.42 0 0 0-.118-.294.4.4 0 0 0-.294-.118zm0 2.353a.406.406 0 0 0-.4.412c0 .223.176.411.4.411h.247l.347.942h5.106l.33-.942h.223a.4.4 0 0 0 .276-.123.4.4 0 0 0 .118-.294.42.42 0 0 0-.118-.288.4.4 0 0 0-.276-.118H8.865zm0 2.353a.405.405 0 0 0-.4.412c0 .223.176.411.4.411h.247l.53.942h4.705l.547-.942h.224a.4.4 0 0 0 .288-.117.4.4 0 0 0 .118-.294.42.42 0 0 0-.118-.295.4.4 0 0 0-.294-.117zm5.482 2.059H9.647v.882h4.706zm-5.482 5.353a.41.41 0 0 0-.4.411c0 .23.176.412.394.412h6.259a.4.4 0 0 0 .288-.117.4.4 0 0 0 .118-.295.42.42 0 0 0-.118-.294.4.4 0 0 0-.294-.117h-.188c-.247-.253-.577-1.06-.577-2.718v-1.165H12.59v4.118h-1.177v-4.118H9.647v1.165c0 1.659-.323 2.465-.57 2.723h-.212z" clip-rule="evenodd"/>
</svg>
